X:49
T: Der Bremberger
N: Q0016A
O: Mitteleuropa, Deutschland (BRD) , Niederrhein
N: Letzte Zeile = Refrain.
R: Ballade, Eifersucht, Ehe, Hinrichtung, Tod
M: 6/8
L: 1/16
K: G
d2 | _B4A2G4=F2 | G4A2_B4
d2 | _B4A2G4=F2 | G4A2_B4
Bc | d2d2d2d2_e2d2 | d6c4
A_B | c4c2c2d2c2 | c6_B4
BA | G4dc_B3cAB | G4z6

@@@ Tune index: 678
